X:1
T:SARABAND
T:Georg Friedrich HÄNDEL
T:MuseScore 2013
T:MuseScore 2013
Z:MuseScore 2013
%%score { ( 1 4 ) | ( 2 3 ) }
L:1/8
M:3/2
K:F
V:1 treble nm="Harpsichord"
V:4 treble 
V:2 bass 
V:3 bass 
V:1
 [A,DF]4 [A,DF]4 z2 [EEG]2 | [A,^CE]4 [A,CE]4 z4 | [=CFA]4 [CFA]4 z2 [GB]2 | %3
 [CEG]4 [CEG]4 z2 [^FA]2 | [DGB]4 [DGB]4 z2 [Ac]2 | [D=FA]4 [DFA]4 z2 A2 | [Ad]4 [Gd]4 z2 e2 | %7
 [EA^c]4 [EAc]4 z4 | [A,DF]4 [A,DF]4 z2 [EG]2 | [A,^CE]4 [A,CE]4 z4 | [=CFA]4 [CFA]4 z2 [GB]2 | %11
 [CEG]4 [CEG]4 z2 [^FA]2 | [DGB]4 [CGB]4 z2 c2 | [C=FA]6 A2 d2 ^c2 | d2 e2 f4 e2 d2 | %15
 [FAd]4 [FAd]4 z4 ::"^Var. 1" F6 A2 G2 F2 | E4 ^C4 z4 | A6 c2 B2 A2 | G4 E4 z2 A2 | B6 d2 c2 B2 | %21
 A4 z4 z2 A2 | d6 f2 e2 d2 | ^c2 e2 A2 c2 E2 G2 | F6 A2 G2 F2 | E4 ^C4 z4 | A6 c2 B2 A2 | %27
 G4 E4 z2 A2 | B6 d2 c2 B2 | A6 A2 d4- | d2 e2 f4 e4 | d8 z4 ::"^Var. 2" [A,DF]4 [A,DF]8 | %33
 [^CE]4 [CE]8 | [=CA]4 [CA]8 | [EEG]4 [EG]8 | [DB]4 [GB]8 | [FA]4 [FA]8 | d4 e6 d2 | [EA^c]12 | %40
 [A,DF]4 [A,DF]8 | [^CE]4 [CE]8 | [FA]4 [FA]8 | [EEG]4 [EG]8 | [DB]4 [GB]8 | A6 A2 d2 ^c2 | %46
 d2 e2 f4 e4 | [FAd]8 z4 :| %48
V:2
 D,4 D,,4 z4 | A,,6 B,,2 A,,2 G,,2 | [F,,F,]4 [F,,F,]4 z4 | C,6 C,2 B,,2 A,,2 | G,,4 G,4 G,,4 | %5
 D,4 D,4 z2 C,2 | B,,4 B,4 z4 | A,4 z2 G,2 F,2 E,2 | D,4 D,,4 z4 | A,,6 B,,2 A,,2 G,,2 | %10
 [F,,F,]4 [F,,F,]4 z4 | C,6 C,2 B,,2 A,,2 | G,,2 G,2 E,2 G,2 C,2 E,2 | F,6 D,2 B,4 | G,4 A,4 A,,4 | %15
 D,4 D,,4 z4 :: z2 A,2 D4 z4 | A,4 A,,4 z4 | F,4 A,4 F,4 | C,4 z4 z2 ^F,2 | G,4 B,4 G,4 | %21
 D4 D,4 z2 C2 | B,4 B,,4 B,4 | A,6 G,2 F,2 E,2 | z2 A,2 D4 z4 | A,4 A,,4 z4 | F,4 A,4 F,4 | %27
 C4 C,4 z2 ^F,2 | G,4 B,4 G,4 | D4 z2 C2 B,2 A,2 | B,2 G,2 A,4 A,,4 | D,8 D,,4 :: %32
 D,2 ^C,2 D,2 E,2 F,2 G,2 | A,2 G,2 A,2 E,2 ^C,2 A,,2 | F,2 E,2 F,2 G,2 A,2 B,2 | %35
 C2 G,2 E,2 G,2 C,2 E,2 | G,2 F,2 G,2 A,2 B,2 C2 | D2 A,2 F,2 A,2 D,2 F,2 | %38
 B,,2 F,2 B,2 A,2 G,2 B,2 | A,2 B,2 A,2 G,2 F,2 E,2 | D,2 A,,2 F,,2 A,,2 D,,2 F,,2 | %41
 A,,2 E,2 A,2 G,2 F,2 E,2 | F,2 C,2 A,,2 C,2 F,,2 A,,2 | C,2 B,,2 C,2 D,2 E,2 F,2 | %44
 G,2 D,2 B,,2 D,2 G,,2 B,,2 | D,2 E,2 D,2 C,2 B,,2 A,,2 | B,,2 G,,2 A,2 G,2 A,2 A,,2 | %47
 D2 A,2 F,2 A,2 D,4 :| %48
V:3
 x12 | x12 | x12 | x12 | x12 | x12 | x12 | x4 A,,4 z4 | x12 | x12 | x12 | x12 | x12 | x12 | x12 | %15
 x12 :: D,4 F,4 D,4 | x12 | x12 | x12 | x12 | x12 | x12 | x12 | D,4 F,4 D,4 | x12 | x12 | x12 | %28
 x12 | x12 | x12 | x12 :: x12 | x12 | x12 | x12 | x12 | x12 | x12 | x12 | x12 | x12 | x12 | x12 | %44
 x12 | x12 | x12 | x12 :| %48
V:4
 x12 | x12 | x12 | x12 | x12 | x12 | x12 | x12 | x12 | x12 | x12 | x12 | x12 | x12 | x12 | x12 :: %16
 x12 | z2 =B,2 z2[I:staff +1] G,2 A,2 E,2 |[I:staff -1] z2 =C2 F4 z4 | %19
 z2 D2 z2[I:staff +1] =B,2 C4 |[I:staff -1] z2 D2 G4 z4 | z2 G2 F2 E2 D2 A2- | A2 A2 G4 z4 | x12 | %24
 x2 z2 x4 z4 | z2 =B,2 z2[I:staff +1] G,2 A,2 E,2 |[I:staff -1] z2 =C2 F4 z4 | %27
 z2 D2 z2[I:staff +1] =B,2 C4 |[I:staff -1] z2 D2 G4 z4 | z2 G2 F2 E2 z2 F2 | G2 B2 A2 d2 ^c2 G2 | %31
 z2 B2 A2 G2 F2 E2 :: x12 | x12 | x12 | x12 | x12 | x12 | A4 G8 | x12 | x12 | x12 | x12 | x12 | %44
 x12 | F8 G4 | z4 A2 d2 ^c2 A2 | x12 :| %48

